X:27
T: ICH HAB ZU DIR GESAGT
N: E0643
O: Europa, Mitteleuropa, Deutschland, Westfalen, Bayern ?
R: Liebes - Lied
M: 2/4
L: 1/8
K: G
D | GABc | B2A
B | cAGF | G2z
D | GABc | B2A
B | cAGF | G2z
B | dcBd | d2c
B | cdec | c2B
D | GABc | B2A
B | cAGF | G2z

@@@ Tune index: 4340
